src/svg/shield.svg

<svg height="16" width="14" xmlns="http://www.w3.org/2000/svg" viewBox="0 0 14 16">
  <path d="M7 0L0 2v6.02c0 4.67 5.31 7.98 7 7.98s7-3.31 7-7.98V2L7 0zM5 11l1.14-2.8c0.05-0.23-0.06-0.47-0.25-0.59-0.56-0.36-0.89-0.95-0.89-1.61 0-1.09 0.89-2 1.98-2 1.08 0 2.02 0.91 2.02 2 0 0.66-0.33 1.25-0.89 1.61-0.19 0.13-0.3 0.36-0.25 0.59l1.14 2.8H5z" />
</svg>

<?xml version="1.0" encoding="UTF-8" standalone="no"?>
<svg width="14px" height="16px" viewBox="0 0 14 16" version="1.1" xmlns="http://www.w3.org/2000/svg" xmlns:xlink="http://www.w3.org/1999/xlink">
    <!-- Generator: Sketch 3.7.1 (28215) - http://www.bohemiancoding.com/sketch -->
    <title>shield</title>
    <desc>Created with Sketch.</desc>
    <defs></defs>
    <g id="Octicons" stroke="none" stroke-width="1" fill="none" fill-rule="evenodd">
        <g id="shield" fill="#000000">
            <path d="M7,0 L0,2 L0,8.02 C0,12.69 5.31,16 7,16 C8.69,16 14,12.69 14,8.02 L14,2 L7,0 L7,0 Z M5,11 L6.14,8.2 C6.19,7.97 6.08,7.73 5.89,7.61 C5.33,7.25 5,6.66 5,6 C5,4.91 5.89,4 6.98,4 C8.06,4 9,4.91 9,6 C9,6.66 8.67,7.25 8.11,7.61 C7.92,7.74 7.81,7.97 7.86,8.2 L9,11 L5,11 L5,11 Z" id="Shape"></path>
        </g>
    </g>
</svg>
